F1 Grump/assets/track outlines/Albert Park - White_2.svg

<svg xmlns="http://www.w3.org/2000/svg" viewBox="0 0 4006.62 2517.11"><defs><style>.cls-1{fill:#fff;}</style></defs><title>Albert Park - White_2</title><g id="Layer_2" data-name="Layer 2"><g id="Layer_1-2" data-name="Layer 1"><path class="cls-1" d="M1572,1997.36c-53.2.25-72.52-53.84-86.66-93.45-7.84-21.92-16.72-46.8-27.35-56-42.76-37.19-73.24-59.89-135.48-61.74-52.59-1.56-125.78,2.22-203.16,6.23-96.55,5-196.34,10.16-269,5.51-83.28-5.34-233.08-27-372.71-53.87-255-49.08-272.28-73.37-281.57-86.42-27.54-38.65,8-95,78.59-199.78,16.76-24.85,38.36-56.88,48.6-75.7-25.38-22.31-58.67-50.19-93.54-79.4-161-134.92-216.33-185.51-226.08-219C-6,1050.82,4.59,967.13,23.14,833c4.65-33.61,9.13-65.93,12.41-93.14,6.22-51.47,42-128.51,76.59-203.12,20.33-43.8,39.55-85.21,49.62-114.89,7.3-21.52,10.14-48.24,12.89-74.08,4.57-42.88,9.32-87.27,35.74-117.1,21.37-24.13,49.42-23.16,74.07-22.34,42.72,1.47,107.23,3.61,222.08-102.72,47.73-44.2,76.58-63.34,143.39-82.72C720.92,2.3,798.78-12.8,887,15.76c68.15,22.08,115.2,48.08,199.23,98.14,84.82,50.54,277,175.74,336.08,223.16,36.31,29.09,17.67,77.45,1.26,120.08-6.35,16.52-18.19,47.27-16.27,56.6,10,40.5,32,88,65.35,141,46.53,74,126.22,181.11,191.27,241.57,56,52.1,130.72,115.93,211.78,147.5,64.73,25.22,138.45,44.59,202.27,53.15,64.67,8.67,322.45-12.69,436.7-30,18.69-7.81,63.79-70.63,88.12-104.54,46.82-65.23,68.76-94.24,97.87-97.78,160.67-19.49,347.09-38.1,486.44-48.57,72.63-5.45,181,14.45,246.85,45.32,118.63,55.57,343.12,171.24,545.84,281.24,53.71,29.13,16.13,111.59-20.16,191.21l-3.57,7.85c-10.3,22.64-24.27,55.38-39.05,90-86.82,203.48-109.73,247.16-136.4,260-4.75,2.32-8.82,4.61-12.65,6.77-35.5,20-61.81,27.22-149.37,7.74-20.49-4.55-51.35-12.51-87.09-21.72-73.7-19-189.9-49-247.81-55.49.89,13.83,3.07,32.17,4.85,47,6.13,51.31,13.75,115.11,2.52,168.34-15.23,72.17-91.31,107.59-140.45,109.72l-11.84.51c-278.51,12-307.6,13.32-1565.26,42.71-.5,0-1,0-1.5,0M1290.07,1714c12.27-.06,23.9,0,34.81.37,85.65,2.53,132.57,37.48,180.83,79.44,24.75,21.53,37,55.74,47.72,85.93,5.33,14.92,14.06,39.38,20.58,46,1255.73-29.61,1284.8-30.88,1562.67-43l11.82-.52c15.6-.68,63.42-14.65,71.15-51.41,8.79-41.68,1.91-99-3.62-145.07-6.82-56.86-10.93-91.19,7.93-113.6a45.93,45.93,0,0,1,32.37-16.41c49.62-3.14,162.68,24.7,294.84,58.76,35.12,9.06,65.46,16.87,84.76,21.17,69.51,15.45,79.22,10,96.77.13,3.8-2.13,7.75-4.35,12.12-6.59,19.71-25.13,74.68-154.14,104.66-224.5,14.94-35.07,29.06-68.2,39.68-91.62l3.6-7.94c12.37-27.15,36.7-80.6,40.2-104.05-198.74-107.62-416-219.45-531.4-273.51-55.2-25.88-149.52-43.24-210.28-38.68-136.43,10.22-318.4,28.31-476.5,47.33-11.3,10.3-35,43.34-52.72,68-57.08,79.42-94.67,128.06-136.21,134.41-106.74,16.3-379.65,40.79-458.28,30.3-69.28-9.3-149-30.23-218.87-57.43-92.37-36-173.86-105.33-234.58-161.74C1534,875.23,1448.72,753.91,1411,693.91c-38-60.41-62.38-113.47-74.42-162.18-7.7-31,5.87-66.34,19-100.52,4.75-12.33,12.17-31.63,14.15-42.17-59.51-45.69-233.38-159.8-320.9-211.94-81-48.26-123-71.5-184.41-91.4-65.73-21.32-125.32-12.32-194.52,7.72-54,15.62-73.87,28.83-114.16,66.1C418.91,286.07,329.76,283,282.05,281.4c-6.42-.22-14.82-.51-19.07-.06-9.73,13.71-13.16,45.8-16.23,74.28s-6.49,60.67-16.42,89.89C219,478.89,198.93,522,177.74,567.65,147,633.84,112.13,708.79,107.29,748.8c-3.35,27.59-7.9,60.35-12.62,94.41C84.57,915.9,67.8,1036.6,72.58,1062.72,87.86,1090,205.33,1188.43,275.84,1247.5c43.07,36.1,83.74,70.19,111.19,95.18,32.37,29.44,5.7,69-52.67,155.43-22.51,33.35-61.84,91.65-72.81,119.5,76.36,32.41,430.72,98.31,593.36,108.72,68.57,4.37,166.23-.71,260.79-5.62,63.45-3.3,124.12-6.46,174.37-6.71"/><path class="cls-1" d="M925.73,2517.11,995.24,2264h61.46l69.51,253.16H1098.4L1080.11,2452H971.82l-18.29,65.12Zm90.73-229L978,2426.75h95.85l-38.41-138.66Z"/><path class="cls-1" d="M1305.47,2517.11H1166.08V2264h28.17v227.92h111.22Z"/><path class="cls-1" d="M1341.32,2264h91.83q37.66,0,56.52,15.55t18.84,48.84q0,23.77-8.23,37.13t-24.33,21q40.24,13.9,40.24,59.63,0,38.06-20.12,54.51t-58.17,16.46h-96.58Zm90.73,24.87h-62.56v87.44h65.12q23.42,0,34.21-11.16t10.79-33.65q0-22.5-11.52-32.56T1432.05,2288.82Zm2.93,111.95h-65.49v91.46h67.31q24.89,0,37.87-10.42t13-36.77q0-13.9-5.31-23.41a30.82,30.82,0,0,0-14.08-13.54A79.77,79.77,0,0,0,1435,2400.77Z"/><path class="cls-1" d="M1566.68,2517.11V2264h154v24.87H1594.85v87.44h103.9v24.51h-103.9v91.46H1720.7v24.88Z"/><path class="cls-1" d="M1797.16,2420.16v97H1769V2264h93.66q40.23,0,60.54,18.66t20.31,58.17q0,58.53-46.47,73.53l48.66,102.8h-31.1l-45.73-97Zm65.85-24.87q51.59,0,51.58-53.24t-51.94-53.23h-65.49v106.47Z"/><path class="cls-1" d="M1964.35,2289.19V2264h182.92v25.24h-77.19v227.92h-27.8V2289.19Z"/><path class="cls-1" d="M2356.16,2431.87h-64.39v85.24H2263.6V2264h92.56q41.34,0,61.1,20.12t19.75,61.46Q2437,2431.87,2356.16,2431.87ZM2291.77,2407h64q52.3,0,52.31-61.46,0-29.27-12.44-43t-39.87-13.72h-64Z"/><path class="cls-1" d="M2446.89,2517.11,2516.4,2264h61.46l69.51,253.16h-27.8L2601.28,2452H2493l-18.3,65.12Zm90.73-229-38.41,138.66h95.85l-38.42-138.66Z"/><path class="cls-1" d="M2715.42,2420.16v97h-28.17V2264h93.65q40.24,0,60.55,18.66t20.3,58.17q0,58.53-46.46,73.53l48.66,102.8h-31.1l-45.73-97Zm65.85-24.87q51.58,0,51.58-53.24t-51.95-53.23h-65.48v106.47Z"/><path class="cls-1" d="M2940.78,2517.11h-28.17V2264h28.17v117.8l41.7-1.46L3047.24,2264h32.19L3007,2391.26l76.46,125.85h-33.29l-67.32-112-42.07,1.47Z"/></g></g></svg>

<svg width="4007" height="1997" viewBox="0 0 4007 1997" fill="none" xmlns="http://www.w3.org/2000/svg">
<g clip-path="url(#clip0_13_621)">
<path d="M1572 1997.36C1518.8 1997.61 1499.48 1943.52 1485.34 1903.91C1477.5 1881.99 1468.62 1857.11 1457.99 1847.91C1415.23 1810.72 1384.75 1788.02 1322.51 1786.17C1269.92 1784.61 1196.73 1788.39 1119.35 1792.4C1022.8 1797.4 923.01 1802.56 850.35 1797.91C767.07 1792.57 617.27 1770.91 477.64 1744.04C222.64 1694.96 205.36 1670.67 196.07 1657.62C168.53 1618.97 204.07 1562.62 274.66 1457.84C291.42 1432.99 313.02 1400.96 323.26 1382.14C297.88 1359.83 264.59 1331.95 229.72 1302.74C68.7201 1167.82 13.3901 1117.23 3.64014 1083.74C-5.99986 1050.82 4.59014 967.13 23.1401 833C27.7901 799.39 32.2701 767.07 35.5501 739.86C41.7701 688.39 77.5501 611.35 112.14 536.74C132.47 492.94 151.69 451.53 161.76 421.85C169.06 400.33 171.9 373.61 174.65 347.77C179.22 304.89 183.97 260.5 210.39 230.67C231.76 206.54 259.81 207.51 284.46 208.33C327.18 209.8 391.69 211.94 506.54 105.61C554.27 61.4099 583.12 42.2699 649.93 22.8899C720.92 2.29987 798.78 -12.8001 887 15.7599C955.15 37.8399 1002.2 63.8399 1086.23 113.9C1171.05 164.44 1363.23 289.64 1422.31 337.06C1458.62 366.15 1439.98 414.51 1423.57 457.14C1417.22 473.66 1405.38 504.41 1407.3 513.74C1417.3 554.24 1439.3 601.74 1472.65 654.74C1519.18 728.74 1598.87 835.85 1663.92 896.31C1719.92 948.41 1794.64 1012.24 1875.7 1043.81C1940.43 1069.03 2014.15 1088.4 2077.97 1096.96C2142.64 1105.63 2400.42 1084.27 2514.67 1066.96C2533.36 1059.15 2578.46 996.33 2602.79 962.42C2649.61 897.19 2671.55 868.18 2700.66 864.64C2861.33 845.15 3047.75 826.54 3187.1 816.07C3259.73 810.62 3368.1 830.52 3433.95 861.39C3552.58 916.96 3777.07 1032.63 3979.79 1142.63C4033.5 1171.76 3995.92 1254.22 3959.63 1333.84L3956.06 1341.69C3945.76 1364.33 3931.79 1397.07 3917.01 1431.69C3830.19 1635.17 3807.28 1678.85 3780.61 1691.69C3775.86 1694.01 3771.79 1696.3 3767.96 1698.46C3732.46 1718.46 3706.15 1725.68 3618.59 1706.2C3598.1 1701.65 3567.24 1693.69 3531.5 1684.48C3457.8 1665.48 3341.6 1635.48 3283.69 1628.99C3284.58 1642.82 3286.76 1661.16 3288.54 1675.99C3294.67 1727.3 3302.29 1791.1 3291.06 1844.33C3275.83 1916.5 3199.75 1951.92 3150.61 1954.05L3138.77 1954.56C2860.26 1966.56 2831.17 1967.88 1573.51 1997.27C1573.01 1997.27 1572.51 1997.27 1572.01 1997.27M1290.07 1714C1302.34 1713.94 1313.97 1714 1324.88 1714.37C1410.53 1716.9 1457.45 1751.85 1505.71 1793.81C1530.46 1815.34 1542.71 1849.55 1553.43 1879.74C1558.76 1894.66 1567.49 1919.12 1574.01 1925.74C2829.74 1896.13 2858.81 1894.86 3136.68 1882.74L3148.5 1882.22C3164.1 1881.54 3211.92 1867.57 3219.65 1830.81C3228.44 1789.13 3221.56 1731.81 3216.03 1685.74C3209.21 1628.88 3205.1 1594.55 3223.96 1572.14C3227.96 1567.35 3232.89 1563.42 3238.46 1560.6C3244.02 1557.78 3250.1 1556.12 3256.33 1555.73C3305.95 1552.59 3419.01 1580.43 3551.17 1614.49C3586.29 1623.55 3616.63 1631.36 3635.93 1635.66C3705.44 1651.11 3715.15 1645.66 3732.7 1635.79C3736.5 1633.66 3740.45 1631.44 3744.82 1629.2C3764.53 1604.07 3819.5 1475.06 3849.48 1404.7C3864.42 1369.63 3878.54 1336.5 3889.16 1313.08L3892.76 1305.14C3905.13 1277.99 3929.46 1224.54 3932.96 1201.09C3734.22 1093.47 3516.96 981.64 3401.56 927.58C3346.36 901.7 3252.04 884.34 3191.28 888.9C3054.85 899.12 2872.88 917.21 2714.78 936.23C2703.48 946.53 2679.78 979.57 2662.06 1004.23C2604.98 1083.65 2567.39 1132.29 2525.85 1138.64C2419.11 1154.94 2146.2 1179.43 2067.57 1168.94C1998.29 1159.64 1918.57 1138.71 1848.7 1111.51C1756.33 1075.51 1674.84 1006.18 1614.12 949.77C1534 875.23 1448.72 753.91 1411 693.91C1373 633.5 1348.62 580.44 1336.58 531.73C1328.88 500.73 1342.45 465.39 1355.58 431.21C1360.33 418.88 1367.75 399.58 1369.73 389.04C1310.22 343.35 1136.35 229.24 1048.83 177.1C967.83 128.84 925.83 105.6 864.42 85.6999C798.69 64.3799 739.1 73.3799 669.9 93.4199C615.9 109.04 596.03 122.25 555.74 159.52C418.91 286.07 329.76 283 282.05 281.4C275.63 281.18 267.23 280.89 262.98 281.34C253.25 295.05 249.82 327.14 246.75 355.62C243.68 384.1 240.26 416.29 230.33 445.51C219 478.89 198.93 522 177.74 567.65C147 633.84 112.13 708.79 107.29 748.8C103.94 776.39 99.3901 809.15 94.6701 843.21C84.5701 915.9 67.8001 1036.6 72.5801 1062.72C87.8601 1090 205.33 1188.43 275.84 1247.5C318.91 1283.6 359.58 1317.69 387.03 1342.68C419.4 1372.12 392.73 1411.68 334.36 1498.11C311.85 1531.46 272.52 1589.76 261.55 1617.61C337.91 1650.02 692.27 1715.92 854.91 1726.33C923.48 1730.7 1021.14 1725.62 1115.7 1720.71C1179.15 1717.41 1239.82 1714.25 1290.07 1714Z" fill="white"/>
</g>
<defs>
<clipPath id="clip0_13_621">
<rect width="4007" height="1997" fill="white"/>
</clipPath>
</defs>
</svg>
